src/pos-icons/remote-desktop.svg

<svg height="24" viewBox="0 0 24 24" width="24" xmlns="http://www.w3.org/2000/svg"><path d="m3 2a2 2 0 0 0 -2 2v12c0 1.11.9 2 2 2h7v2h-2v2h8v-2h-2v-2h7a2 2 0 0 0 2-2v-12a2 2 0 0 0 -2-2m-18 2h18v12h-18m12-11-3.5 3.5 3.5 3.5 1.4-1.4-2.1-2.1 2.1-2.1m-7.4 1.6-1.4 1.4 2.1 2.1-2.1 2.1 1.4 1.4 3.5-3.5"/></svg>

<?xml version="1.0" encoding="UTF-8"?><!DOCTYPE svg PUBLIC "-//W3C//DTD SVG 1.1//EN" "http://www.w3.org/Graphics/SVG/1.1/DTD/svg11.dtd"><svg xmlns="http://www.w3.org/2000/svg" xmlns:xlink="http://www.w3.org/1999/xlink" version="1.1" id="mdi-remote-desktop" width="24" height="24" viewBox="0 0 24 24"><path d="M3,2A2,2 0 0,0 1,4V16C1,17.11 1.9,18 3,18H10V20H8V22H16V20H14V18H21A2,2 0 0,0 23,16V4A2,2 0 0,0 21,2M3,4H21V16H3M15,5L11.5,8.5L15,12L16.4,10.6L14.3,8.5L16.4,6.4M9,8L7.6,9.4L9.7,11.5L7.6,13.6L9,15L12.5,11.5" /></svg>
